X:1
T:Miss Catherine Maxwell's Scots Measure
T:Miss Catherine Maxwell's Scots Measure
T:Abraham Mackintosh
C:Abraham Mackintosh
%%score 1 2
L:1/8
M:4/4
K:G
V:1 treble 
V:2 bass 
V:1
 [Bd][Ac] | [GB]2 [GB][FA] G3 B | cBAG E2 dc | B2 BA G2 E2 | F2 [FA]2 [FA]2 dc | %5
 B>cBA G2 [GB][FA] | G>AGE D3 C | B,DGB AFGE | D2 GA G2 :: Bc | dBGB dBgd | ecGc ecgf | edcB cBAG | %13
 F2 [FA]2 [FA]2 [GB][Ac] | dBec dBcA | BGAF GEDC | B,DGB AFGE | D2 GA G2 :| %18
V:2
 z2 | G,2 DC B,A, G,2 | F,G,A,B, C2 B,A, | G,2 D,2 B,,2 C,2 | D,2 D,E, D,C,B,,A,, | %5
 G,,2 D,2 B,,2 DC | B,A,B,C [G,B,]2 [F,A,]2 | G,2 B,,2 C,2 B,,C, | %8
 D,[C,E,][B,,D,][A,,C,] [G,,B,,]2 :: z2 | G,2 G,,2 G,2 B,2 | C2 C,2 C2 B,D | CB,A,G, A,B,C^C | %13
 D2 D,E, F,2 D,2 | G,2 [G,C]2 [G,B,]2 [F,A,]2 | G,2 D,2 E,2 [F,A,]2 | G,2 B,,2 C,2 B,,C, | %17
 D,[C,E,][B,,D,][A,,C,] [G,,B,,]2 :| %18

